html/app/assets/img/ui/logo.svg

<svg fill="none" height="45" viewBox="0 0 136 45" width="136" xmlns="http://www.w3.org/2000/svg" xmlns:xlink="http://www.w3.org/1999/xlink"><clipPath id="a"><path d="m0 0h136v45h-136z"/></clipPath><g clip-path="url(#a)" fill="#f6f6f6"><path clip-rule="evenodd" d="m110.645 39.3249c-7.116 7.1162-18.6535 7.1161-25.7699-.0004-1.0214-1.0214-1.0214-2.6774 0-3.6987 1.0214-1.0214 2.6774-1.0214 3.6988 0 5.0737 5.0737 13.2991 5.0736 18.3721.0003 1.022-1.0214 2.678-1.0214 3.699 0s1.021 2.6774 0 3.6988z" fill-rule="evenodd"/><path d="m10.6797 29.9721c2.3038 0 4.4762-.7247 6.2681-2.1318.9375-.7247 1.107-2.0461.384-2.9414-.7264-.8953-2.0029-1.0659-2.8988-.3839-1.1104.8527-2.3454 1.2792-3.7533 1.2792-3.28286 0-6.00879-2.6859-6.00879-6.0539 0-3.283 2.72593-6.0116 6.00879-6.0116 1.4079 0 2.6429.4265 3.7533 1.2365.8959.7247 2.1724.5541 2.8988-.3412.723-.8953.5535-2.2167-.384-2.9414-1.7919-1.4071-3.9643-2.13182-6.2681-2.13182-5.62823 0-10.187512 4.56182-10.187512 10.18952 0 5.67 4.559282 10.2318 10.187512 10.2318z"/><path d="m23.385 7.2487c1.3629 0 2.3868-1.1512 2.3868-2.47265 0-1.36445-1.0239-2.43035-2.3868-2.43035-1.363 0-2.4319 1.0659-2.4319 2.43035 0 1.32145 1.0689 2.47265 2.4319 2.47265zm-.0415 22.5955c1.1485 0 2.1309-.938 2.1309-2.0888v-16.0302c0-1.1512-.9824-2.08914-2.1309-2.08914-1.1519 0-2.0479.93794-2.0479 2.08914v16.0302c0 1.1508.896 2.0888 2.0479 2.0888z"/><path d="m39.7129 25.7089-.595-.0427c-3.4973 0-5.4587-2.558-5.4587-6.0539v-6.0112h5.1578c1.0654 0 1.9198-.8526 1.9198-1.9612 0-1.0659-.8544-1.91854-1.9198-1.91854h-5.1578v-7.67389c0-1.108549-.9375-2.04649344-2.0894-2.04649344s-2.0893.93794444-2.0893 2.04649344v17.56483c0 7.2477 5.0746 10.2319 9.6374 10.2319h.595c1.1519 0 2.0894-.938 2.0894-2.0888 0-1.1513-.9375-2.0465-2.0894-2.0465z"/><path d="m60.1778 9.89193c-1.1104-.5118-2.3454-.04266-2.8159 1.06587l-5.3272 12.0225-5.6282-12.1078c-.4705-1.02322-1.747-1.49237-2.7709-.98057-1.0654.46877-1.491 1.74797-.979 2.81387l7.1192 15.3904-2.8574 6.4377c-.4704 1.0232-.0415 2.302 1.024 2.7712.2975.1279.5535.1706.8959.1706.8095 0 1.5325-.4265 1.9165-1.2365l10.4469-23.5334c.467-1.1086 0-2.3451-1.0239-2.81387z"/><path d="m73.8211 4.17894.595-.04264c1.1519 0 2.0894-.8953 2.0894-2.04616 0-1.151203-.9375-2.08916344-2.0894-2.08916344h-.595c-4.5627 0-9.6375 2.94180344-9.6375 10.23182344v17.5652c0 1.1082.9375 2.0462 2.0894 2.0462s2.0894-.938 2.0894-2.0462v-14.1969h5.1577c1.0689 0 1.9199-.8953 1.9199-1.9612s-.851-1.91854-1.9199-1.91854h-5.1577c.2145-3.28266 2.1309-5.54242 5.4587-5.54242z"/><path d="m102.17 29.8443c1.197 0 2.089-.938 2.089-2.0888v-9.2516c0-2.6006 2.176-4.7324 4.778-4.7324 2.598 0 4.732 2.1318 4.732 4.7324v9.2516c0 1.1508.937 2.0888 2.086 2.0888 1.152 0 2.089-.938 2.089-2.0888v-9.2516c0-4.9027-4.006-8.91039-8.907-8.91039-4.947 0-8.956 4.00769-8.956 8.91039v9.2516c0 1.1508.982 2.0888 2.089 2.0888z"/><path d="m128.858 29.9721c5.289-.128 7.631-3.1547 7.631-6.0112 0-1.7906-.938-4.5618-7.33-6.1818-3.072-.6821-3.667-1.9613-3.581-2.5154.128-1.4924 3.792-2.5152 7.289-.3411 1.024.5114 2.217-.0001 2.684-1.0233.471-.9806 0-2.2168-1.02-2.6859-1.622-.938-3.456-1.57737-5.756-1.57737-4.051-.12795-7.462 2.13177-7.676 5.24387-.17 2.1744 1.024 5.0733 7.25 6.651 2.173.4688 3.622 1.3641 3.622 2.43-.041 2.1314-4.902 2.7285-8.824.2985-1.024-.4265-2.218.0423-2.643 1.1082-.384 1.0233.086 2.2171 1.107 2.6433 1.577.81 4.265 2.0038 7.247 1.9612z"/><path d="m76.5967 19.5349c.1569-5.4107 4.6135-9.81395 10.1476-9.81395 2.3539 0 4.5403.82645 6.2665 2.20215v-.0293c0-1.1487.8056-2.04208 1.9145-2.04208 1.0148 0 1.8727.89338 1.8727 2.04208v6.8994c.0314.3389.0523.6831.0523 1.0325v8.0575c0 1.1508-.8579 2.0463-1.8831 2.0463-1.1089 0-1.9145-.8955-1.9145-2.0463v-.1392c-1.7367 1.4144-3.9441 2.266-6.3398 2.266-5.6074 0-10.1162-4.5497-10.1162-10.0786 0-.1328 0-.2647 0-.3965zm15.2425 3.4188c.5231-.8882.8265-1.9217.8265-3.0223 0-3.3173-2.6783-5.9965-5.9528-5.9965-2.9815 0-5.5131 2.2262-5.9316 5.1324-.0314.249-.0524.5011-.0524.7584 0 3.3247 2.7305 6.0112 6.0154 6.0112 2.1446 0 4.0488-1.1539 5.0949-2.8832z"/></g></svg>

<svg width="136" height="45" viewBox="0 0 136 45" fill="none" xmlns="http://www.w3.org/2000/svg">
<g clip-path="url(#clip0_1012_977)">
<path fill-rule="evenodd" clip-rule="evenodd" d="M110.645 39.3249C103.529 46.4411 91.9915 46.441 84.8751 39.3245C83.8537 38.3031 83.8537 36.6471 84.8751 35.6258C85.8965 34.6044 87.5525 34.6044 88.5739 35.6258C93.6476 40.6995 101.873 40.6994 106.946 35.6261C107.968 34.6047 109.624 34.6047 110.645 35.6261C111.666 36.6475 111.666 38.3035 110.645 39.3249Z" fill="#F6F6F6"/>
<path d="M10.6797 29.9721C12.9835 29.9721 15.1559 29.2474 16.9478 27.8403C17.8853 27.1156 18.0548 25.7942 17.3318 24.8989C16.6054 24.0036 15.3289 23.833 14.433 24.515C13.3226 25.3677 12.0876 25.7942 10.6797 25.7942C7.39684 25.7942 4.67091 23.1083 4.67091 19.7403C4.67091 16.4573 7.39684 13.7287 10.6797 13.7287C12.0876 13.7287 13.3226 14.1552 14.433 14.9652C15.3289 15.6899 16.6054 15.5193 17.3318 14.624C18.0548 13.7287 17.8853 12.4073 16.9478 11.6826C15.1559 10.2755 12.9835 9.55078 10.6797 9.55078C5.05147 9.55078 0.492188 14.1126 0.492188 19.7403C0.492188 25.4103 5.05147 29.9721 10.6797 29.9721Z" fill="#F6F6F6"/>
<path d="M23.385 7.2487C24.7479 7.2487 25.7718 6.0975 25.7718 4.77605C25.7718 3.4116 24.7479 2.3457 23.385 2.3457C22.022 2.3457 20.9531 3.4116 20.9531 4.77605C20.9531 6.0975 22.022 7.2487 23.385 7.2487ZM23.3435 29.8442C24.492 29.8442 25.4744 28.9062 25.4744 27.7554V11.7252C25.4744 10.574 24.492 9.63606 23.3435 9.63606C22.1916 9.63606 21.2956 10.574 21.2956 11.7252V27.7554C21.2956 28.9062 22.1916 29.8442 23.3435 29.8442Z" fill="#F6F6F6"/>
<path d="M39.7129 25.7089L39.1179 25.6662C35.6206 25.6662 33.6592 23.1082 33.6592 19.6123V13.6011H38.817C39.8824 13.6011 40.7368 12.7485 40.7368 11.6399C40.7368 10.574 39.8824 9.72136 38.817 9.72136H33.6592V2.04747C33.6592 0.938921 32.7217 0.000976562 31.5698 0.000976562C30.4179 0.000976562 29.4805 0.938921 29.4805 2.04747V19.6123C29.4805 26.86 34.5551 29.8442 39.1179 29.8442H39.7129C40.8648 29.8442 41.8023 28.9062 41.8023 27.7554C41.8023 26.6041 40.8648 25.7089 39.7129 25.7089Z" fill="#F6F6F6"/>
<path d="M60.1778 9.89193C59.0674 9.38013 57.8324 9.84927 57.3619 10.9578L52.0347 22.9803L46.4065 10.8725C45.936 9.84928 44.6595 9.38013 43.6356 9.89193C42.5702 10.3607 42.1446 11.6399 42.6566 12.7058L49.7758 28.0962L46.9184 34.5339C46.448 35.5571 46.8769 36.8359 47.9424 37.3051C48.2399 37.433 48.4959 37.4757 48.8383 37.4757C49.6478 37.4757 50.3708 37.0492 50.7548 36.2392L61.2017 12.7058C61.6687 11.5972 61.2017 10.3607 60.1778 9.89193Z" fill="#F6F6F6"/>
<path d="M73.8211 4.17894L74.4161 4.1363C75.568 4.1363 76.5055 3.241 76.5055 2.09014C76.5055 0.938937 75.568 0.000976562 74.4161 0.000976562H73.8211C69.2584 0.000976562 64.1836 2.94278 64.1836 10.2328V27.798C64.1836 28.9062 65.1211 29.8442 66.273 29.8442C67.4249 29.8442 68.3624 28.9062 68.3624 27.798V13.6011H73.5201C74.589 13.6011 75.44 12.7058 75.44 11.6399C75.44 10.574 74.589 9.72136 73.5201 9.72136H68.3624C68.5769 6.4387 70.4933 4.17894 73.8211 4.17894Z" fill="#F6F6F6"/>
<path d="M102.17 29.8443C103.367 29.8443 104.259 28.9063 104.259 27.7555V18.5039C104.259 15.9033 106.435 13.7715 109.037 13.7715C111.635 13.7715 113.769 15.9033 113.769 18.5039V27.7555C113.769 28.9063 114.706 29.8443 115.855 29.8443C117.007 29.8443 117.944 28.9063 117.944 27.7555V18.5039C117.944 13.6012 113.938 9.59351 109.037 9.59351C104.09 9.59351 100.081 13.6012 100.081 18.5039V27.7555C100.081 28.9063 101.063 29.8443 102.17 29.8443Z" fill="#F6F6F6"/>
<path d="M128.858 29.9721C134.147 29.8441 136.489 26.8174 136.489 23.9609C136.489 22.1703 135.551 19.3991 129.159 17.7791C126.087 17.097 125.492 15.8178 125.578 15.2637C125.706 13.7713 129.37 12.7485 132.867 14.9226C133.891 15.434 135.084 14.9225 135.551 13.8993C136.022 12.9187 135.551 11.6825 134.531 11.2134C132.909 10.2754 131.075 9.63603 128.775 9.63603C124.724 9.50808 121.313 11.7678 121.099 14.8799C120.929 17.0543 122.123 19.9532 128.349 21.5309C130.522 21.9997 131.971 22.895 131.971 23.9609C131.93 26.0923 127.069 26.6894 123.147 24.2594C122.123 23.8329 120.929 24.3017 120.504 25.3676C120.12 26.3909 120.59 27.5847 121.611 28.0109C123.188 28.8209 125.876 30.0147 128.858 29.9721Z" fill="#F6F6F6"/>
<path d="M76.5967 19.5349C76.7536 14.1242 81.2102 9.72095 86.7443 9.72095C89.0982 9.72095 91.2846 10.5474 93.0108 11.9231V11.8938C93.0108 10.7451 93.8164 9.85172 94.9253 9.85172C95.9401 9.85172 96.798 10.7451 96.798 11.8938V18.7932C96.8294 19.1321 96.8503 19.4763 96.8503 19.8257V27.8832C96.8503 29.034 95.9924 29.9295 94.9672 29.9295C93.8583 29.9295 93.0527 29.034 93.0527 27.8832V27.744C91.316 29.1584 89.1086 30.01 86.7129 30.01C81.1055 30.01 76.5967 25.4603 76.5967 19.9314C76.5967 19.7986 76.5967 19.6667 76.5967 19.5349ZM91.8392 22.9537C92.3623 22.0655 92.6657 21.032 92.6657 19.9314C92.6657 16.6141 89.9874 13.9349 86.7129 13.9349C83.7314 13.9349 81.1998 16.1611 80.7813 19.0673C80.7499 19.3163 80.7289 19.5684 80.7289 19.8257C80.7289 23.1504 83.4594 25.8369 86.7443 25.8369C88.8889 25.8369 90.7931 24.683 91.8392 22.9537Z" fill="#F6F6F6"/>
</g>
<defs>
<clipPath id="clip0_1012_977">
<rect width="136" height="45" fill="white"/>
</clipPath>
</defs>
</svg>
